-- Cut groups
d1 $ fast 2 $ s "ho:4 hc ho:4 hc"

d1 $ fast 2 $ s "ho:4 hc ho hc" # cut 1

-- legato vs cut

d1 $ s "sax(3,8)" # cut 1

d1 $ jux rev $ speed "<1 0.5 0.75>(<3 5>,8)" # sound "bev" # cut 1
  # room 0.4 # sz 0.9 # gain 1.3

d2 $ jux rev $ sound "sax(3,8)" # legato 1 # n 3 
  # note "<[9 7] 5 [9 12]>" # djf 0.7 # sz 0.4 # room 0.4



