setcps 0.4

d1 
  $ splice 8 "0 1 2 3 4 5 6 7" 
  $ s "break:4"

d2
  $ splice 8 "0 1 [1 3] 4 3 7"
  $ s "break:4"

d1 
  $ slice 8 "0 1 [1 3] [3 4] 3 <5 [4 5]> <2 [4 2]> <6 7>" 
  $ s "break:4"

d1 $ s "breaks152" # legato 1

d1 $ splice 8 "6 1 [2 3] ~ 4 1 6*2 7" $ s "breaks152"

d1 $ slice 8 "6 1 [2 3] ~ 4 1 6*2 7" $ s "breaks152"

d2 $ slice 8 ("0 1 2 3 4 5") $ s "breaks152"

d3 $ sound "bd [hh:3 hh:2] sn*2 cp:4"

d1 $ s "[bd(6,12), cp(3,12)]"
