d1 $ swing 4 $ n "<c3'maj e3'min [f3'maj d3'min] g3'maj>"
   # s "superpiano"
   # lpf 1500
   # shape 0.3
   # room 0.6
   # sustain 8
   # gain 0.75

d2 $ arp "<up down upanddown>" $ (|+12) $ n "<c3'maj e3'min [f3'maj d3'min] g3'maj>"
   # s "superpiano"
   # lpf 1500
   # shape 0.3
   # room 0.6
   # sustain 8
   # gain 0.75

