d1 
  $ s "super808(4,8)" 
  # rate 0.4
  -- # room 0.4
  # lpf 800

d2 
  $ s "[sn(3,8), cp:1(2,8)]" 
  # gain 0.8

d3
  $ degradeBy 0.2
  $ s "hh27(10,16)" 
  # gain 0.8

d4
  $ degradeBy 0.4
  $ superimpose (slow 1.5)
  $ s "rave2*8" 
  # n "0 [2 2] [1 3] 0 2 3 ~"
  # sustain 0.6
  # legato 1
  # lpf 800
  # gain "1@5 0@1"

d5
  $ every 8 (#gain 1)
  $ s "<crow birds>(4,8)" # n (run 4)
  # gain 0
