d1 
  $ n "c d e f"
  # s "superpiano"
  # sustain 3


d1
  -- $ slow 2
  $ n (scale "major" $ sometimes (|+ "[2,4]") $ "<0 1> [2 2] 1 <3 2> 4") -- half of the notes will be transformed into chords
  # s "soskick"
  # sustain 4
  # lpf 1500
  # room 0.9
  # gain 0.85

d1
  $ ((0.85) ~>)
  $ n "[0 2 4] [2 0 0] [3 4]" 
  # s "super808"

