d1 $ s "bd(4,8)" # gain 0.8

d2 $ degradeBy 0.2 $ s "<hh27!3 hh!1>(10,12)"

d3 $ s "[sn(6,12), cp(<6 3>,8)]" # n "0 3"

d4 
  $ s "[flbass(<4 6>,8), bass0(3,8)]" 
  # vowel "<a e>"
  # n (run "<3!8 1!6>")
  # room "0.3!3 0.1!2"
  # legato 1

d5 
  $ s "[808bd(6,12), 808cy(2,6)]" 
  # n "4 3" 
  # gain 1.1 
  # room 0.2
