d1 
  $ s "[jungle:6(3,8), jungle:2(2,6), cp:4(2,8)]"

d2 
  $ s "hoover*4" 
  # n (irand 8) # gain 0.9

d3 
  $ s "<incoming>(3,8)" 
  # n "<0 2?> <1 3>?"
  
d4 
  $ s "kurt" 
  # n (irand 3) 
  # gain 0.5
  # rel 0.5

d5 
  $ off 0.125 (|+| 12)
  $ fast 2
  $ n (arpg "c'maj") 
  # s "superreese" 
  # gain 0

d6 
  $ n (range 0 2 (saw)) 
  # s "ratinho"

