d1
  $ every 6 (slow 1.5)
  $ s "[bd*4, hh*8, popkick]"
  # squiz (fast 2 $ range 0.5 2 tri)
  
d2 
  $ fast "0.5 1 2"
  $ s "gabba*8"
  # n "4 [2 1] 3"
  # gain 0.8

d3
  $ n "0 4"
  # s "kurt"
  # vowel "<a o>/2"
  # gain "<0 0 0.8>"
  -- # coarse 10
  # squiz "0 2 4"

d4
  $ every 3 (#gain 0.9)
  $ "bleep:0(3,8)"
  # squiz "4 8"
  # gain 0

d5
  $ n "0 2 4 5"
  + up "<0 2>/2"
  # s "jvbass"
  # vowel "a u"
  # pan sine
