do
  let pat = "{1 0 1 1 0 0 1 1 0 0 0 0}%8"
      rest = "{[0 0 1]/3 [0 1]/2 1 [1 0]/2 1 1}%8"
  d1 
    $ mask rest
    $ stack [
      mask pat $ s "k*8",
      mask (inv pat) $ s "[sn cp:1]*8",
      mask "{0 1 1 0 1 1 0 0 0}%16" $ s "hh*16"
    ]
